src/helpers/heroicons/solid/presentation-chart-line.svg

<svg width="24" height="24" viewBox="0 0 24 24" fill="none" xmlns="http://www.w3.org/2000/svg">
<path fill-rule="evenodd" clip-rule="evenodd" d="M2.25 2.25C1.83579 2.25 1.5 2.58579 1.5 3C1.5 3.41421 1.83579 3.75 2.25 3.75H3V14.25C3 15.9069 4.34315 17.25 6 17.25H7.20943L6.03849 20.7628C5.9075 21.1558 6.11987 21.5805 6.51283 21.7115C6.90579 21.8425 7.33053 21.6301 7.46151 21.2372L7.79057 20.25H16.2094L16.5385 21.2372C16.6695 21.6301 17.0942 21.8425 17.4872 21.7115C17.8801 21.5805 18.0925 21.1558 17.9615 20.7628L16.7906 17.25H18C19.6569 17.25 21 15.9069 21 14.25V3.75H21.75C22.1642 3.75 22.5 3.41421 22.5 3C22.5 2.58579 22.1642 2.25 21.75 2.25H2.25ZM8.79057 17.25H15.2094L15.7094 18.75H8.29057L8.79057 17.25ZM16.8755 8.25467C17.2341 8.04727 17.3566 7.58847 17.1492 7.22992C16.9418 6.87138 16.483 6.74886 16.1245 6.95626C14.7577 7.74688 13.5517 8.78371 12.5667 10.0061L11.0303 8.46975C10.7374 8.17686 10.2626 8.17686 9.96967 8.46975L6.96967 11.4698C6.67678 11.7626 6.67678 12.2375 6.96967 12.5304C7.26256 12.8233 7.73744 12.8233 8.03033 12.5304L10.5 10.0607L12.1173 11.678C12.2742 11.835 12.4927 11.9143 12.7138 11.8947C12.9349 11.8751 13.136 11.7586 13.2629 11.5765C14.207 10.2217 15.4414 9.08428 16.8755 8.25467Z" />
</svg>

<svg xmlns="http://www.w3.org/2000/svg" viewBox="0 0 24 24" fill="currentColor" aria-hidden="true" data-slot="icon">
  <path fill-rule="evenodd" d="M2.25 2.25a.75.75 0 0 0 0 1.5H3v10.5a3 3 0 0 0 3 3h1.21l-1.172 3.513a.75.75 0 0 0 1.424.474l.329-.987h8.418l.33.987a.75.75 0 0 0 1.422-.474l-1.17-3.513H18a3 3 0 0 0 3-3V3.75h.75a.75.75 0 0 0 0-1.5H2.25Zm6.54 15h6.42l.5 1.5H8.29l.5-1.5Zm8.085-8.995a.75.75 0 1 0-.75-1.299 12.81 12.81 0 0 0-3.558 3.05L11.03 8.47a.75.75 0 0 0-1.06 0l-3 3a.75.75 0 1 0 1.06 1.06l2.47-2.47 1.617 1.618a.75.75 0 0 0 1.146-.102 11.312 11.312 0 0 1 3.612-3.321Z" clip-rule="evenodd"/>
</svg>
